svg/vscode-codicons/insert.svg

<svg width="16" height="16" viewBox="0 0 16 16" xmlns="http://www.w3.org/2000/svg" fill="currentColor"><path fill-rule="evenodd" clip-rule="evenodd" d="M14 1L15 2V6L14 7L6 7L5 6L5 2L6 1L14 1ZM14 2L6 2L6 6L14 6L14 2Z"/><path fill-rule="evenodd" clip-rule="evenodd" d="M14 9L15 10V14L14 15L6 15L5 14L5 10L6 9L14 9ZM14 10L6 10L6 14L14 14L14 10Z"/><path d="M1 6.39268L2.61414 8.00682L1 9.62096L1.69352 10.3141L4 8.00682L1.69352 5.69995L1 6.39268Z"/></svg>

<svg xmlns="http://www.w3.org/2000/svg" width="16" height="16" viewBox="0 0 16 16"><path fill-rule="evenodd" d="m14 1 1 1v4l-1 1H6L5 6V2l1-1h8Zm0 1H6v4h8V2Zm0 7 1 1v4l-1 1H6l-1-1v-4l1-1h8Zm0 1H6v4h8v-4Z" clip-rule="evenodd"/><path d="m1 6.393 1.614 1.614L1 9.62l.694.693L4 8.007 1.694 5.7 1 6.393Z"/></svg>
